icons/clock/clock-8.svg

<svg width="14" height="14" viewBox="0 0 14 14" fill="none"
    xmlns="http://www.w3.org/2000/svg">
    <circle cx="7" cy="7" r="4.5" stroke="green"/>
    <path d="M7.00033 3.5C7.27633 3.50018 7.50033 3.72397 7.50033 4V7C7.50033 7.0069 7.49768 7.01368 7.4974 7.02051C7.49676 7.03567 7.49452 7.05044 7.49252 7.06543C7.49038 7.08168 7.48837 7.09756 7.48471 7.11328C7.48018 7.13264 7.47392 7.15123 7.46713 7.16992C7.46319 7.18075 7.46006 7.19169 7.45541 7.20215C7.44701 7.2211 7.43686 7.23897 7.42611 7.25684C7.41986 7.26718 7.41354 7.27727 7.40658 7.28711C7.39669 7.30113 7.38575 7.31411 7.37436 7.32715C7.36384 7.33917 7.35374 7.35134 7.34213 7.3623C7.33138 7.37243 7.31972 7.38137 7.30795 7.39062C7.29251 7.40281 7.27693 7.41448 7.2601 7.4248C7.25658 7.42696 7.25392 7.43054 7.25033 7.43262L5.51791 8.43262C5.27882 8.57066 4.97341 8.48903 4.83529 8.25C4.69726 8.01092 4.77892 7.70551 5.01791 7.56738L6.50033 6.71094V4C6.50033 3.72386 6.72419 3.5 7.00033 3.5Z" fill="red"/>
</svg>

<svg xmlns="http://www.w3.org/2000/svg" width="14" height="14" fill="none" viewBox="0 0 14 14"><circle cx="7" cy="7" r="4.5" stroke="green"/><path fill="red" d="M7 3.5a.5.5 0 0 1 .5.5v3q0 .01-.003.02 0 .023-.004.045l-.008.048-.018.057-.012.032a.5.5 0 0 1-.08.125l-.033.035q-.016.015-.034.029l-.048.034-.01.008-1.732 1a.5.5 0 1 1-.5-.866L6.5 6.711V4a.5.5 0 0 1 .5-.5"/></svg>
